svg/u1f6fc.svg

<svg viewBox="0 0 128 128" xmlns="http://www.w3.org/2000/svg">
  <defs>
    <radialGradient id="SVGID_1_" cx="28.1583" cy="109.5525" gradientUnits="userSpaceOnUse" r="15.1782">
      <stop offset="0.703" stop-color="#FFD740"/>
      <stop offset="0.9986" stop-color="#F6BF26"/>
    </radialGradient>
    <linearGradient id="SVGID_2_" gradientUnits="userSpaceOnUse" x1="28.1583" x2="28.1583" y1="114.5476" y2="101.8665">
      <stop offset="0" stop-color="#BF360C" stop-opacity="0"/>
      <stop offset="1" stop-color="#BF360C"/>
    </linearGradient>
    <linearGradient id="SVGID_3_" gradientUnits="userSpaceOnUse" x1="105.536" x2="121.9002" y1="105.5648" y2="92.5613">
      <stop offset="0.2394" stop-color="#757575"/>
      <stop offset="0.8222" stop-color="#9D9D9D"/>
    </linearGradient>
    <radialGradient id="SVGID_4_" cx="85.445" cy="109.5525" gradientUnits="userSpaceOnUse" r="15.1782">
      <stop offset="0.703" stop-color="#FFD740"/>
      <stop offset="0.9986" stop-color="#F6BF26"/>
    </radialGradient>
    <linearGradient id="SVGID_5_" gradientUnits="userSpaceOnUse" x1="85.445" x2="85.445" y1="114.5476" y2="101.8665">
      <stop offset="0" stop-color="#BF360C" stop-opacity="0"/>
      <stop offset="1" stop-color="#BF360C"/>
    </linearGradient>
  </defs>
  <path d="M110.78,70.71 C104.53,63.72 88.9,61.4 75.62,53.23 C71.96,50.98 64.12,44.58 63.07,40.27 C62.29,37.06 67.64,21.38 65.48,20.21 C61.84,18.23 57.13,22.64 57.13,22.64 C57.13,22.64 55.41,14.47 47.26,12.93 C39.96,11.55 32.88,16.13 11.08,17.15 C7.02,17.34 5.15,20.27 5.65,24.08 C6.06,27.16 9.03,27.85 9.03,27.85 C9.03,27.85 5.9,29.79 6.17,33.23 C6.44,36.67 9.77,37.42 9.77,37.42 C9.77,37.42 6.69,39.2 6.86,42.85 C7.04,46.5 10.14,47.9 10.14,47.9 C10.14,47.9 8.69,57.85 7.88,63.15 C6.36,73.2 7.24,82.52 14.77,89.52 L110.56,89.52 C115.29,85.75 116.15,76.72 110.78,70.71 Z" fill="#039BE5"/>
  <path d="M36.08,13.85 C38.24,13.1 40.53,12.7 42.86,12.58 C45.18,12.49 47.58,12.73 49.83,13.65 C52.1,14.5 54.09,16.32 55.28,18.43 C56.5,20.54 57.18,22.85 57.65,25.13 C58.08,27.43 58.32,29.72 58.55,31.98 C58.66,33.11 58.77,34.24 58.9,35.35 L59.15,36.98 L59.49,38.6 C60.58,42.89 62.61,46.99 65.41,50.59 C61.99,47.54 59.45,43.47 58,39.02 L57.52,37.33 L57.17,35.6 C56.98,34.46 56.82,33.32 56.67,32.19 C56.38,29.93 56.13,27.68 55.69,25.51 C54.88,21.22 53.19,16.85 49.2,15.07 C47.27,14.15 45.07,13.7 42.85,13.56 C40.61,13.41 38.34,13.53 36.08,13.85 Z" fill="#81D4FA"/>
  <path d="M56.8,40.22 A3.34 3.34 0 1 1 50.12,40.22 A3.34 3.34 0 1 1 56.8,40.22 Z" fill="#EEEEEE"/>
  <path d="M62.27,50.29 A3.34 3.34 0 1 1 55.59,50.29 A3.34 3.34 0 1 1 62.27,50.29 Z" fill="#EEEEEE"/>
  <path d="M69.55,57.25 A3.34 3.34 0 1 1 62.87,57.25 A3.34 3.34 0 1 1 69.55,57.25 Z" fill="#EEEEEE"/>
  <path d="M78.91,62.7 A3.34 3.34 0 1 1 72.23,62.7 A3.34 3.34 0 1 1 78.91,62.7 Z" fill="#EEEEEE"/>
  <path d="M89.69,67.09 A3.34 3.34 0 1 1 83.01,67.09 A3.34 3.34 0 1 1 89.69,67.09 Z" fill="#EEEEEE"/>
  <path d="M53.131,38.757 L62.341,36.687 Q63.805,36.358 64.133,37.821 Q64.298,38.553 64.014,39.001 Q63.731,39.449 62.999,39.613 L53.789,41.683 Q52.325,42.012 51.997,40.549 Q51.668,39.085 53.131,38.757 Z" fill="#F6BF26"/>
  <path d="M58.432,48.823 L65.362,44.073 Q66.599,43.225 67.447,44.462 Q67.871,45.081 67.774,45.602 Q67.677,46.123 67.058,46.547 L60.128,51.297 Q58.891,52.145 58.043,50.908 Q57.195,49.671 58.432,48.823 Z" fill="#F6BF26"/>
  <path d="M65.12,56.22 L70.93,50.07 Q71.445,49.525 71.975,49.51 Q72.505,49.495 73.05,50.01 Q74.14,51.04 73.11,52.13 L67.3,58.28 Q66.785,58.825 66.255,58.84 Q65.725,58.855 65.18,58.34 Q64.09,57.31 65.12,56.22 Z" fill="#F6BF26"/>
  <path d="M73.99,61.918 L78.38,54.738 Q79.163,53.458 80.442,54.24 Q81.722,55.023 80.94,56.302 L76.55,63.482 Q76.159,64.122 75.643,64.247 Q75.127,64.371 74.488,63.98 Q73.208,63.197 73.99,61.918 Z" fill="#F6BF26"/>
  <path d="M84.941,66.576 L87.621,59.236 Q88.135,57.827 89.544,58.341 Q90.249,58.598 90.473,59.079 Q90.696,59.56 90.439,60.264 L87.759,67.604 Q87.245,69.013 85.836,68.499 Q84.427,67.985 84.941,66.576 Z" fill="#F6BF26"/>
  <path d="M63.484,34.975 Q69.428,32.857 73.443,33.069 Q78.54,33.338 79.585,36.914 Q80.529,40.147 77.633,42.736 Q74.689,45.369 70.686,44.202 Q65.748,42.783 62.411,38.591 Q61.538,38.943 60.621,39.344 Q59.247,39.945 58.646,38.571 Q58.545,38.341 58.5,38.132 Q52.21,37.687 48.608,35.243 Q43.848,32.013 45.838,28.201 Q47.804,24.434 53.224,26.276 Q58.412,28.039 63.484,34.975 Z M65.405,37.481 Q67.967,40.299 71.514,41.318 Q73.93,42.023 75.634,40.5 Q77.119,39.172 76.705,37.756 Q76.257,36.222 73.285,36.065 Q70.144,35.899 65.405,37.481 Z M59.881,35.205 Q55.991,30.385 52.258,29.116 Q49.273,28.102 48.497,29.589 Q47.745,31.031 50.293,32.76 Q53.553,34.973 59.881,35.205 Z" fill="#F6BF26"/>
  <path d="M29.13,55.28 C22.17,53.96 15.15,52.42 9.83,50.06 C9.36,53.29 8.46,59.39 7.89,63.15 C7.25,67.35 7.04,71.42 7.56,75.25 C21.85,80.13 43.81,65.48 53.48,89.51 L62.27,89.51 C59.58,64.15 47.83,58.83 29.13,55.28 Z" fill="#F6BF26"/>
  <path d="M27.15,60.68 C20.57,60.05 13.98,59.07 8.79,57.07 C8.47,59.26 8.14,61.45 7.88,63.15 C7.24,67.35 7.03,71.42 7.55,75.25 C21.84,80.13 43.8,65.48 53.47,89.51 L59.85,89.51 C56.46,66.77 40.32,61.94 27.15,60.68 Z" fill="#F4511E"/>
  <path d="M21.38,67.89 C16.63,68.1 11.61,67.9 7.51,66.15 C7.19,69.29 7.16,72.34 7.55,75.26 C21.84,80.14 43.8,65.49 53.47,89.52 L56.08,89.52 C52.5,69.17 34.27,67.32 21.38,67.89 Z" fill="#9CCC65"/>
  <path d="M108.61,104.5 L114.26,100.05 L110.78,92.74 L112.49,87.39 C112.49,87.39 24.94,86.35 20.39,85.96 C17.49,85.71 14.32,85.09 14.32,85.09 C12.06,84.62 10.47,84.15 10.47,84.15 L20.09,104.2 L25.52,102.22 L21.32,92.74 L34.03,92.74 L31.67,100.06 C31.13,101.73 32.05,103.52 33.72,104.06 L40.32,106.19 C41.99,106.73 43.78,105.81 44.32,104.14 L48,92.74 L65.6,92.74 L69.28,104.15 C69.82,105.82 71.61,106.74 73.28,106.2 L79.88,104.07 C81.55,103.53 82.47,101.74 81.93,100.07 L79.57,92.75 L93.42,92.75 L88.09,102.23 L94.29,104.21 L100.35,92.75 L108.61,104.5 Z" fill="#616161"/>
  <path d="M42.6,109.55 A14.44 14.44 0 1 1 13.72,109.55 A14.44 14.44 0 1 1 42.6,109.55 Z" fill="url(#SVGID_1_)"/>
  <path d="M35.12,109.55 A6.96 6.96 0 1 1 21.2,109.55 A6.96 6.96 0 1 1 35.12,109.55 Z" fill="url(#SVGID_2_)" opacity="0.76"/>
  <path d="M31.78,109.55 A3.62 3.62 0 1 1 24.54,109.55 A3.62 3.62 0 1 1 31.78,109.55 Z" fill="#757575"/>
  <path d="M103.55,95.9 L108.9,92.03 C110.28,91.03 112.18,91.14 113.43,92.3 L121.47,99.73 C122.86,101.02 122.73,103.26 121.19,104.37 L111.43,111.43 C109.89,112.54 107.72,111.97 106.94,110.24 L102.4,100.28 C101.68,98.74 102.17,96.9 103.55,95.9 Z" fill="url(#SVGID_3_)"/>
  <path d="M99.89,109.55 A14.44 14.44 0 1 1 71.01,109.55 A14.44 14.44 0 1 1 99.89,109.55 Z" fill="url(#SVGID_4_)"/>
  <path d="M92.41,109.55 A6.96 6.96 0 1 1 78.49,109.55 A6.96 6.96 0 1 1 92.41,109.55 Z" fill="url(#SVGID_5_)" opacity="0.76"/>
  <path d="M89.07,109.55 A3.62 3.62 0 1 1 81.83,109.55 A3.62 3.62 0 1 1 89.07,109.55 Z" fill="#757575"/>
  <g opacity="0.57">
    <path d="M13.67,30.68 C22.18,30.68 31.87,29.32 41.17,26.78 C41.97,26.56 42.44,25.74 42.22,24.94 C42,24.14 41.17,23.67 40.38,23.89 C21.1,29.15 9.03,27.86 9.03,27.86 C9.03,27.86 7.65,28.72 6.8,30.31 C6.91,30.34 11.4,30.68 13.67,30.68 Z" fill="#01579B"/>
    <path d="M15.15,40.58 C24,40.58 34.08,39.11 43.72,36.36 C44.52,36.13 44.98,35.3 44.75,34.51 C44.52,33.71 43.69,33.27 42.9,33.48 C23.97,38.52 9.77,37.43 9.77,37.43 C9.77,37.43 8.44,38.2 7.58,39.77 C7.82,40.05 11.09,40.58 15.15,40.58 Z" fill="#01579B"/>
    <path d="M45.26,46.09 C46.05,45.85 46.51,45.02 46.27,44.22 C46.03,43.43 45.18,42.92 44.4,43.21 C29.89,48.68 10.14,47.91 10.14,47.91 L9.84,50 C9.84,50 14.29,50.65 17.01,50.6 C26.53,50.41 35.27,49.05 45.26,46.09 Z" fill="#01579B"/>
  </g>
</svg>

<svg viewBox="0 0 128 128" xmlns="http://www.w3.org/2000/svg">
  <g>
    <path d="M110.78,70.71c-6.25-6.99-21.88-9.31-35.16-17.48c-3.66-2.25-11.5-8.65-12.55-12.96 c-0.78-3.21,4.57-18.89,2.41-20.06c-3.64-1.98-8.35,2.43-8.35,2.43s-1.72-8.17-9.87-9.71c-7.3-1.38-14.38,3.2-36.18,4.22 c-4.06,0.19-5.93,3.12-5.43,6.93c0.41,3.08,3.38,3.77,3.38,3.77s-3.13,1.94-2.86,5.38s3.6,4.19,3.6,4.19s-3.08,1.78-2.91,5.43 c0.18,3.65,3.28,5.05,3.28,5.05s-1.45,9.95-2.26,15.25C6.36,73.2,7.24,82.52,14.77,89.52h95.79 C115.29,85.75,116.15,76.72,110.78,70.71z" fill="#039BE5"/>
    <path d="M36.08,13.85c2.16-0.75,4.45-1.15,6.78-1.27c2.32-0.09,4.72,0.15,6.97,1.07 c2.27,0.85,4.26,2.67,5.45,4.78c1.22,2.11,1.9,4.42,2.37,6.7c0.43,2.3,0.67,4.59,0.9,6.85c0.11,1.13,0.22,2.26,0.35,3.37 l0.25,1.63l0.34,1.62c1.09,4.29,3.12,8.39,5.92,11.99c-3.42-3.05-5.96-7.12-7.41-11.57l-0.48-1.69l-0.35-1.73 c-0.19-1.14-0.35-2.28-0.5-3.41c-0.29-2.26-0.54-4.51-0.98-6.68c-0.81-4.29-2.5-8.66-6.49-10.44c-1.93-0.92-4.13-1.37-6.35-1.51 C40.61,13.41,38.34,13.53,36.08,13.85z" fill="#81D4FA"/>
    <g>
      <circle cx="53.46" cy="40.22" fill="#EEEEEE" r="3.34"/>
      <circle cx="58.93" cy="50.29" fill="#EEEEEE" r="3.34"/>
      <circle cx="66.21" cy="57.25" fill="#EEEEEE" r="3.34"/>
      <circle cx="75.57" cy="62.7" fill="#EEEEEE" r="3.34"/>
      <circle cx="86.35" cy="67.09" fill="#EEEEEE" r="3.34"/>
      <line fill="none" stroke="#F6BF26" stroke-linecap="round" stroke-miterlimit="10" stroke-width="3" x1="53.46" x2="62.67" y1="40.22" y2="38.15"/>
      <line fill="none" stroke="#F6BF26" stroke-linecap="round" stroke-miterlimit="10" stroke-width="3" x1="59.28" x2="66.21" y1="50.06" y2="45.31"/>
      <line fill="none" stroke="#F6BF26" stroke-linecap="round" stroke-miterlimit="10" stroke-width="3" x1="66.21" x2="72.02" y1="57.25" y2="51.1"/>
      <line fill="none" stroke="#F6BF26" stroke-linecap="round" stroke-miterlimit="10" stroke-width="3" x1="75.27" x2="79.66" y1="62.7" y2="55.52"/>
      <line fill="none" stroke="#F6BF26" stroke-linecap="round" stroke-miterlimit="10" stroke-width="3" x1="86.35" x2="89.03" y1="67.09" y2="59.75"/>
    </g>
    <path d="M62.88,36.71 C36.08,37.5,47.78,15.08,62.88,36.71c2.83,4.06,6.41,5.53,8.22,6.05c9.05,2.64,13.43-15.51-11.08-4.79" fill="none" stroke="#F6BF26" stroke-linecap="round" stroke-miterlimit="10" stroke-width="3"/>
    <g>
      <path d="M29.13,55.28c-6.96-1.32-13.98-2.86-19.3-5.22c-0.47,3.23-1.37,9.33-1.94,13.09 c-0.64,4.2-0.85,8.27-0.33,12.1c14.29,4.88,36.25-9.77,45.92,14.26h8.79C59.58,64.15,47.83,58.83,29.13,55.28z" fill="#F6BF26"/>
      <path d="M27.15,60.68c-6.58-0.63-13.17-1.61-18.36-3.61c-0.32,2.19-0.65,4.38-0.91,6.08 c-0.64,4.2-0.85,8.27-0.33,12.1c14.29,4.88,36.25-9.77,45.92,14.26h6.38C56.46,66.77,40.32,61.94,27.15,60.68z" fill="#F4511E"/>
      <path d="M21.38,67.89c-4.75,0.21-9.77,0.01-13.87-1.74c-0.32,3.14-0.35,6.19,0.04,9.11 c14.29,4.88,36.25-9.77,45.92,14.26h2.61C52.5,69.17,34.27,67.32,21.38,67.89z" fill="#9CCC65"/>
    </g>
    <path d="M108.61,104.5l5.65-4.45l-3.48-7.31l1.71-5.35c0,0-87.55-1.04-92.1-1.43 c-2.9-0.25-6.07-0.87-6.07-0.87c-2.26-0.47-3.85-0.94-3.85-0.94l9.62,20.05l5.43-1.98l-4.2-9.48h12.71l-2.36,7.32 c-0.54,1.67,0.38,3.46,2.05,4l6.6,2.13c1.67,0.54,3.46-0.38,4-2.05L48,92.74h17.6l3.68,11.41c0.54,1.67,2.33,2.59,4,2.05l6.6-2.13 c1.67-0.54,2.59-2.33,2.05-4l-2.36-7.32h13.85l-5.33,9.48l6.2,1.98l6.06-11.46L108.61,104.5z" fill="#616161"/>
    <g>
      <g>
        <radialGradient id="SVGID_1_" cx="28.1583" cy="109.5525" gradientUnits="userSpaceOnUse" r="15.1782">
          <stop offset="0.703" stop-color="#FFD740"/>
          <stop offset="0.9986" stop-color="#F6BF26"/>
        </radialGradient>
        <circle cx="28.16" cy="109.55" fill="url(#SVGID_1_)" r="14.44"/>
      </g>
      <g opacity="0.76">
        <linearGradient id="SVGID_2_" gradientUnits="userSpaceOnUse" x1="28.1583" x2="28.1583" y1="114.5476" y2="101.8665">
          <stop offset="0" stop-color="#BF360C" stop-opacity="0"/>
          <stop offset="1" stop-color="#BF360C"/>
        </linearGradient>
        <circle cx="28.16" cy="109.55" fill="url(#SVGID_2_)" r="6.96"/>
      </g>
      <circle cx="28.16" cy="109.55" fill="#757575" r="3.62"/>
    </g>
    <linearGradient id="SVGID_3_" gradientUnits="userSpaceOnUse" x1="105.536" x2="121.9002" y1="105.5648" y2="92.5613">
      <stop offset="0.2394" stop-color="#757575"/>
      <stop offset="0.8222" stop-color="#9D9D9D"/>
    </linearGradient>
    <path d="M103.55,95.9l5.35-3.87c1.38-1,3.28-0.89,4.53,0.27l8.04,7.43c1.39,1.29,1.26,3.53-0.28,4.64 l-9.76,7.06c-1.54,1.11-3.71,0.54-4.49-1.19l-4.54-9.96C101.68,98.74,102.17,96.9,103.55,95.9z" fill="url(#SVGID_3_)"/>
    <g>
      <g>
        <radialGradient id="SVGID_4_" cx="85.445" cy="109.5525" gradientUnits="userSpaceOnUse" r="15.1782">
          <stop offset="0.703" stop-color="#FFD740"/>
          <stop offset="0.9986" stop-color="#F6BF26"/>
        </radialGradient>
        <circle cx="85.45" cy="109.55" fill="url(#SVGID_4_)" r="14.44"/>
      </g>
      <g opacity="0.76">
        <linearGradient id="SVGID_5_" gradientUnits="userSpaceOnUse" x1="85.445" x2="85.445" y1="114.5476" y2="101.8665">
          <stop offset="0" stop-color="#BF360C" stop-opacity="0"/>
          <stop offset="1" stop-color="#BF360C"/>
        </linearGradient>
        <circle cx="85.45" cy="109.55" fill="url(#SVGID_5_)" r="6.96"/>
      </g>
      <circle cx="85.45" cy="109.55" fill="#757575" r="3.62"/>
    </g>
    <g opacity="0.57">
      <path d="M13.67,30.68c8.51,0,18.2-1.36,27.5-3.9c0.8-0.22,1.27-1.04,1.05-1.84 c-0.22-0.8-1.05-1.27-1.84-1.05C21.1,29.15,9.03,27.86,9.03,27.86s-1.38,0.86-2.23,2.45C6.91,30.34,11.4,30.68,13.67,30.68z" fill="#01579B"/>
      <path d="M15.15,40.58c8.85,0,18.93-1.47,28.57-4.22c0.8-0.23,1.26-1.06,1.03-1.85 c-0.23-0.8-1.06-1.24-1.85-1.03c-18.93,5.04-33.13,3.95-33.13,3.95s-1.33,0.77-2.19,2.34C7.82,40.05,11.09,40.58,15.15,40.58z" fill="#01579B"/>
      <path d="M45.26,46.09c0.79-0.24,1.25-1.07,1.01-1.87c-0.24-0.79-1.09-1.3-1.87-1.01 c-14.51,5.47-34.26,4.7-34.26,4.7L9.84,50c0,0,4.45,0.65,7.17,0.6C26.53,50.41,35.27,49.05,45.26,46.09z" fill="#01579B"/>
    </g>
  </g>
</svg>
